app/assets/images/niveauA1-blanc.svg

<svg width="20" height="20" viewBox="0 0 20 20" fill="none" xmlns="http://www.w3.org/2000/svg">
<path d="M6.6035 5.16636C6.65683 5.16636 6.70016 5.18414 6.7335 5.21969C6.76683 5.25525 6.7835 5.29969 6.7835 5.35303V7.29636C6.7835 7.35414 6.7635 7.40303 6.7235 7.44303C6.68572 7.48081 6.63794 7.49969 6.58016 7.49969C6.54905 7.49969 6.51794 7.49525 6.48683 7.48636C6.45794 7.47525 6.43683 7.46081 6.4235 7.44303L5.20016 5.88969V7.31303C5.20016 7.36636 5.18238 7.41081 5.14683 7.44636C5.1135 7.48192 5.06905 7.49969 5.0135 7.49969C4.96016 7.49969 4.91683 7.48192 4.8835 7.44636C4.85016 7.41081 4.8335 7.36636 4.8335 7.31303V5.36969C4.8335 5.31192 4.85238 5.26414 4.89016 5.22636C4.93016 5.18636 4.97905 5.16636 5.03683 5.16636C5.07016 5.16636 5.10238 5.17303 5.1335 5.18636C5.16683 5.19969 5.19127 5.21747 5.20683 5.23969L6.42016 6.78636V5.35303C6.42016 5.29969 6.43683 5.25525 6.47016 5.21969C6.50572 5.18414 6.55016 5.16636 6.6035 5.16636Z" fill="#FBF9FA"/>
<path d="M7.628 7.29636C7.628 7.35414 7.60911 7.40303 7.57133 7.44303C7.53356 7.48081 7.48578 7.49969 7.428 7.49969C7.37022 7.49969 7.32245 7.48081 7.28467 7.44303C7.24689 7.40303 7.228 7.35414 7.228 7.29636V5.91969C7.228 5.86192 7.24689 5.81414 7.28467 5.77636C7.32245 5.73636 7.37022 5.71636 7.428 5.71636C7.48578 5.71636 7.53356 5.73636 7.57133 5.77636C7.60911 5.81414 7.628 5.86192 7.628 5.91969V7.29636ZM7.42467 5.49969C7.34911 5.49969 7.29578 5.48747 7.26467 5.46303C7.23356 5.43858 7.218 5.39525 7.218 5.33303V5.26969C7.218 5.20747 7.23467 5.16414 7.268 5.13969C7.30133 5.11525 7.35467 5.10303 7.428 5.10303C7.50578 5.10303 7.56022 5.11525 7.59133 5.13969C7.62245 5.16414 7.638 5.20747 7.638 5.26969V5.33303C7.638 5.39747 7.62133 5.44192 7.588 5.46636C7.55689 5.48858 7.50245 5.49969 7.42467 5.49969Z" fill="#FBF9FA"/>
<path d="M9.40909 5.71969C9.46243 5.71969 9.50687 5.73747 9.54243 5.77303C9.57798 5.80636 9.59576 5.84858 9.59576 5.89969C9.59576 5.92636 9.58687 5.95969 9.56909 5.99969L8.94576 7.37303C8.93021 7.41081 8.90687 7.44081 8.87576 7.46303C8.84687 7.48525 8.81354 7.49747 8.77576 7.49969L8.74576 7.50303C8.70798 7.50303 8.67243 7.49192 8.63909 7.46969C8.60798 7.44525 8.58354 7.41303 8.56576 7.37303L7.94576 5.99969C7.93021 5.96414 7.92243 5.92858 7.92243 5.89303C7.92243 5.84858 7.94132 5.80858 7.97909 5.77303C8.01687 5.73525 8.06354 5.71636 8.11909 5.71636C8.16132 5.71636 8.20021 5.72747 8.23576 5.74969C8.27132 5.77192 8.29798 5.80303 8.31576 5.84303L8.77576 6.89636L9.23243 5.84636C9.25021 5.80414 9.27465 5.77192 9.30576 5.74969C9.33687 5.72747 9.37132 5.71747 9.40909 5.71969Z" fill="#FBF9FA"/>
<path d="M11.4946 6.56636C11.4923 6.61969 11.4712 6.66303 11.4312 6.69636C11.3912 6.72969 11.3446 6.74636 11.2912 6.74636H10.1912C10.2179 6.87747 10.279 6.98081 10.3746 7.05636C10.4701 7.12969 10.5779 7.16636 10.6979 7.16636C10.789 7.16636 10.8601 7.15858 10.9112 7.14303C10.9623 7.12525 11.0023 7.10747 11.0312 7.08969C11.0623 7.06969 11.0835 7.05636 11.0946 7.04969C11.1346 7.02969 11.1723 7.01969 11.2079 7.01969C11.2546 7.01969 11.2946 7.03636 11.3279 7.06969C11.3612 7.10303 11.3779 7.14192 11.3779 7.18636C11.3779 7.24636 11.3468 7.30081 11.2846 7.34969C11.2223 7.40081 11.139 7.44414 11.0346 7.47969C10.9301 7.51525 10.8246 7.53303 10.7179 7.53303C10.5312 7.53303 10.3679 7.49414 10.2279 7.41636C10.0901 7.33858 9.98345 7.23192 9.9079 7.09636C9.83234 6.95858 9.79456 6.80414 9.79456 6.63303C9.79456 6.44192 9.83456 6.27414 9.91456 6.12969C9.99456 5.98525 10.1001 5.87525 10.2312 5.79969C10.3623 5.72192 10.5023 5.68303 10.6512 5.68303C10.7979 5.68303 10.9357 5.72303 11.0646 5.80303C11.1957 5.88303 11.3001 5.99081 11.3779 6.12636C11.4557 6.26192 11.4946 6.40858 11.4946 6.56636ZM10.6512 6.04969C10.3935 6.04969 10.2412 6.17081 10.1946 6.41303H11.0679V6.38969C11.059 6.29636 11.0135 6.21636 10.9312 6.14969C10.849 6.08303 10.7557 6.04969 10.6512 6.04969Z" fill="#FBF9FA"/>
<path d="M13.2845 5.68303C13.3423 5.68303 13.3901 5.70192 13.4278 5.73969C13.4656 5.77747 13.4845 5.82636 13.4845 5.88636V7.29636C13.4845 7.35414 13.4656 7.40303 13.4278 7.44303C13.3901 7.48081 13.3423 7.49969 13.2845 7.49969C13.2267 7.49969 13.179 7.48081 13.1412 7.44303C13.1056 7.40525 13.0867 7.35747 13.0845 7.29969C13.029 7.36414 12.9534 7.41969 12.8578 7.46636C12.7645 7.51081 12.6656 7.53303 12.5612 7.53303C12.4078 7.53303 12.269 7.49414 12.1445 7.41636C12.0201 7.33636 11.9212 7.22636 11.8478 7.08636C11.7767 6.94636 11.7412 6.78747 11.7412 6.60969C11.7412 6.43192 11.7767 6.27303 11.8478 6.13303C11.919 5.99081 12.0156 5.88081 12.1378 5.80303C12.2623 5.72303 12.399 5.68303 12.5478 5.68303C12.6545 5.68303 12.7545 5.70303 12.8478 5.74303C12.9412 5.78081 13.0201 5.82969 13.0845 5.88969V5.88636C13.0845 5.82858 13.1034 5.78081 13.1412 5.74303C13.179 5.70303 13.2267 5.68303 13.2845 5.68303ZM12.6112 7.16636C12.7556 7.16636 12.8734 7.11414 12.9645 7.00969C13.0556 6.90303 13.1012 6.76969 13.1012 6.60969C13.1012 6.44969 13.0556 6.31636 12.9645 6.20969C12.8734 6.10303 12.7556 6.04969 12.6112 6.04969C12.469 6.04969 12.3523 6.10303 12.2612 6.20969C12.1701 6.31636 12.1245 6.44969 12.1245 6.60969C12.1245 6.76969 12.169 6.90303 12.2578 7.00969C12.349 7.11414 12.4667 7.16636 12.6112 7.16636Z" fill="#FBF9FA"/>
<path d="M15.2088 5.71636C15.2666 5.71636 15.3143 5.73636 15.3521 5.77636C15.3899 5.81414 15.4088 5.86192 15.4088 5.91969V6.76636C15.4088 7.00636 15.3421 7.19414 15.2088 7.32969C15.0777 7.46525 14.8899 7.53303 14.6454 7.53303C14.401 7.53303 14.2132 7.46525 14.0821 7.32969C13.951 7.19414 13.8854 7.00636 13.8854 6.76636V5.91969C13.8854 5.86192 13.9043 5.81414 13.9421 5.77636C13.9799 5.73636 14.0277 5.71636 14.0854 5.71636C14.1432 5.71636 14.191 5.73636 14.2288 5.77636C14.2666 5.81414 14.2854 5.86192 14.2854 5.91969V6.76636C14.2854 6.90192 14.3154 7.00303 14.3754 7.06969C14.4354 7.13414 14.5254 7.16636 14.6454 7.16636C14.7677 7.16636 14.8588 7.13414 14.9188 7.06969C14.9788 7.00303 15.0088 6.90192 15.0088 6.76636V5.91969C15.0088 5.86192 15.0277 5.81414 15.0654 5.77636C15.1032 5.73636 15.151 5.71636 15.2088 5.71636Z" fill="#FBF9FA"/>
<path fill-rule="evenodd" clip-rule="evenodd" d="M10 18.75C14.8325 18.75 18.75 14.8325 18.75 10C18.75 5.16751 14.8325 1.25 10 1.25C5.16751 1.25 1.25 5.16751 1.25 10C1.25 14.8325 5.16751 18.75 10 18.75ZM10 20C15.5228 20 20 15.5228 20 10C20 4.47715 15.5228 0 10 0C4.47715 0 0 4.47715 0 10C0 15.5228 4.47715 20 10 20Z" fill="#FBF9FA"/>
<path d="M10.8764 13.9006C10.9056 13.9764 10.9202 14.0464 10.9202 14.1106C10.9202 14.2623 10.8706 14.3877 10.7714 14.4869C10.6722 14.5802 10.5585 14.6269 10.4302 14.6269C10.3252 14.6269 10.2289 14.5948 10.1414 14.5306C10.0597 14.4664 9.99557 14.3789 9.94891 14.2681L9.49391 13.2094H6.88641L6.43141 14.2769C6.39057 14.3877 6.32641 14.4752 6.23891 14.5394C6.15724 14.5977 6.06682 14.6269 5.96766 14.6269C5.81599 14.6269 5.69932 14.586 5.61766 14.5044C5.54182 14.4227 5.50391 14.3119 5.50391 14.1719C5.50391 14.1194 5.51266 14.0639 5.53016 14.0056L7.70891 8.7731C7.75557 8.65644 7.82557 8.56602 7.91891 8.50185C8.01224 8.43769 8.11724 8.41144 8.23391 8.4231C8.33891 8.4231 8.43516 8.45519 8.52266 8.51935C8.61599 8.57769 8.68307 8.66227 8.72391 8.7731L10.8764 13.9006ZM9.06516 12.2031L8.18141 10.1556L7.31516 12.2031H9.06516Z" fill="#FBF9FA"/>
<path d="M13.0173 8.4581C13.1631 8.4581 13.2856 8.5106 13.3848 8.6156C13.484 8.71477 13.5335 8.84019 13.5335 8.99185V14.0494C13.5335 14.201 13.4781 14.3294 13.3673 14.4344C13.2565 14.5335 13.1194 14.5831 12.956 14.5831C12.7927 14.5831 12.6585 14.5335 12.5535 14.4344C12.4485 14.3294 12.396 14.201 12.396 14.0494V9.90185L11.8535 10.2344C11.766 10.2869 11.6727 10.3131 11.5735 10.3131C11.4277 10.3131 11.3023 10.2577 11.1973 10.1469C11.0981 10.036 11.0485 9.91352 11.0485 9.77935C11.0485 9.68602 11.0719 9.59852 11.1185 9.51685C11.171 9.43519 11.2381 9.37102 11.3198 9.32435L12.641 8.53685C12.7402 8.48435 12.8656 8.4581 13.0173 8.4581Z" fill="#FBF9FA"/>
</svg>

<svg width="20" height="20" fill="none" xmlns="http://www.w3.org/2000/svg"><path d="M6.604 5.166a.17.17 0 01.13.054c.033.035.05.08.05.133v1.943a.2.2 0 01-.204.204.338.338 0 01-.093-.014.139.139 0 01-.064-.043L5.2 5.89v1.423a.18.18 0 01-.053.133.174.174 0 01-.134.054.17.17 0 01-.13-.054.187.187 0 01-.05-.133V5.37a.2.2 0 01.203-.203c.034 0 .066.006.098.02a.158.158 0 01.073.053L6.42 6.786V5.353c0-.053.017-.098.05-.133a.18.18 0 01.134-.054zM7.628 7.296a.206.206 0 01-.057.147.194.194 0 01-.143.057.194.194 0 01-.143-.057.206.206 0 01-.057-.147V5.92c0-.058.019-.106.057-.144a.189.189 0 01.143-.06c.058 0 .106.02.143.06a.194.194 0 01.057.144v1.376zM7.425 5.5c-.076 0-.13-.013-.16-.037-.031-.024-.047-.068-.047-.13V5.27c0-.063.017-.106.05-.13.033-.025.087-.037.16-.037.078 0 .132.012.163.037.031.024.047.067.047.13v.063c0 .064-.017.109-.05.133-.031.023-.086.034-.163.034zM9.41 5.72a.18.18 0 01.132.053.166.166 0 01.054.127c0 .026-.01.06-.027.1l-.623 1.373a.202.202 0 01-.17.127l-.03.003a.189.189 0 01-.107-.033.249.249 0 01-.073-.097L7.946 6a.264.264 0 01-.024-.107c0-.044.02-.084.057-.12a.19.19 0 01.14-.057c.042 0 .081.011.117.034a.206.206 0 01.08.093l.46 1.053.456-1.05a.22.22 0 01.074-.096.157.157 0 01.103-.03zM11.495 6.566a.171.171 0 01-.064.13.212.212 0 01-.14.05h-1.1a.51.51 0 00.507.42.765.765 0 00.213-.023.63.63 0 00.184-.093c.04-.02.077-.03.113-.03.047 0 .087.016.12.05a.16.16 0 01.05.116c0 .06-.031.115-.093.164a.977.977 0 01-.567.183.993.993 0 01-.49-.117.82.82 0 01-.32-.32.947.947 0 01-.113-.463c0-.191.04-.359.12-.503a.84.84 0 01.736-.447.77.77 0 01.414.12.893.893 0 01.43.763zm-.844-.516c-.258 0-.41.12-.456.363h.873V6.39a.344.344 0 00-.137-.24.432.432 0 00-.28-.1zM13.284 5.683a.194.194 0 01.2.203v1.41a.206.206 0 01-.056.147.194.194 0 01-.144.057.194.194 0 01-.143-.057.213.213 0 01-.056-.143.698.698 0 01-.227.166.681.681 0 01-.297.067.77.77 0 01-.416-.117.856.856 0 01-.297-.33 1.038 1.038 0 01-.107-.476c0-.178.036-.337.107-.477a.81.81 0 01.29-.33.743.743 0 01.41-.12c.107 0 .207.02.3.06a.762.762 0 01.236.147v-.004c0-.057.02-.105.057-.143a.189.189 0 01.143-.06zm-.673 1.483a.447.447 0 00.353-.156.594.594 0 00.137-.4.594.594 0 00-.137-.4.443.443 0 00-.353-.16.44.44 0 00-.35.16.594.594 0 00-.136.4c0 .16.044.293.133.4a.447.447 0 00.353.156zM15.209 5.716c.058 0 .105.02.143.06a.194.194 0 01.057.144v.846c0 .24-.067.428-.2.564-.131.135-.32.203-.564.203-.244 0-.432-.068-.563-.203-.131-.136-.197-.324-.197-.564V5.92c0-.058.02-.106.057-.144a.189.189 0 01.143-.06c.058 0 .106.02.144.06a.194.194 0 01.056.144v.846c0 .136.03.237.09.304.06.064.15.096.27.096.123 0 .214-.032.274-.096.06-.067.09-.168.09-.304V5.92c0-.058.019-.106.056-.144a.189.189 0 01.144-.06z" fill="#FBF9FA"/><path fill-rule="evenodd" clip-rule="evenodd" d="M10 18.75a8.75 8.75 0 100-17.5 8.75 8.75 0 000 17.5zM10 20c5.523 0 10-4.477 10-10S15.523 0 10 0 0 4.477 0 10s4.477 10 10 10z" fill="#FBF9FA"/><path d="M10.876 13.9c.03.076.044.146.044.21a.51.51 0 01-.149.377.484.484 0 01-.63.044.642.642 0 01-.192-.263l-.455-1.059H6.886l-.455 1.068a.554.554 0 01-.192.262.456.456 0 01-.271.088c-.152 0-.269-.041-.35-.123a.47.47 0 01-.114-.332c0-.053.009-.108.026-.166L7.71 8.773a.58.58 0 01.21-.271.458.458 0 01.315-.079c.105 0 .201.032.289.096.093.059.16.143.2.254l2.153 5.128zm-1.81-1.697l-.885-2.047-.866 2.047h1.75zM13.017 8.458c.146 0 .269.053.368.158.099.099.149.224.149.376v5.057a.51.51 0 01-.167.385.594.594 0 01-.411.15.563.563 0 01-.402-.15.524.524 0 01-.158-.385V9.902l-.543.332a.535.535 0 01-.28.08.5.5 0 01-.376-.167.539.539 0 01-.148-.368c0-.093.023-.18.07-.262a.577.577 0 01.2-.193l1.322-.787a.8.8 0 01.376-.079z" fill="#FBF9FA"/></svg>
